dist/img/svg/ic_loupe.svg

<svg xmlns="http://www.w3.org/2000/svg" viewBox="0 0 24 24"><path d="M15.5 14l5 5-1.5 1.5-5-5v-.79l-.27-.28A6.471 6.471 0 019.5 16 6.5 6.5 0 013 9.5 6.5 6.5 0 019.5 3 6.5 6.5 0 0116 9.5c0 1.61-.59 3.09-1.57 4.23l.28.27h.79m-6 0C12 14 14 12 14 9.5S12 5 9.5 5 5 7 5 9.5 7 14 9.5 14m2.5-4h-2v2H9v-2H7V9h2V7h1v2h2v1z"/></svg>

<svg xmlns="http://www.w3.org/2000/svg" viewBox="0 0 24 24"><path d="M15.5,14L20.5,19L19,20.5L14,15.5V14.71L13.73,14.43C12.59,15.41 11.11,16 9.5,16A6.5,6.5 0 0,1 3,9.5A6.5,6.5 0 0,1 9.5,3A6.5,6.5 0 0,1 16,9.5C16,11.11 15.41,12.59 14.43,13.73L14.71,14H15.5M9.5,14C12,14 14,12 14,9.5C14,7 12,5 9.5,5C7,5 5,7 5,9.5C5,12 7,14 9.5,14M12,10H10V12H9V10H7V9H9V7H10V9H12V10Z" /></svg>
